lib/healthicons/icons/outline/typography/G.svg

<svg fill="none" height="48" viewBox="0 0 48 48" width="48" xmlns="http://www.w3.org/2000/svg"><path clip-rule="evenodd" d="m18.2597 10.1418c2.7409-1.1353 5.7569-1.43235 8.6667-.85357 2.6361.52437 5.0778 1.74627 7.0736 3.53147 1.235 1.1046 1.3406 3.0011.236 4.236-1.1045 1.235-3.0011 1.3407-4.236.2361-1.1975-1.0711-2.6625-1.8042-4.2442-2.1189-1.7458-.3472-3.5554-.169-5.1999.5122-1.6446.6812-3.0502 1.8347-4.0391 3.3148-.989 1.48-1.5168 3.2201-1.5168 5.0001s.5278 3.5201 1.5168 5.0001c.9889 1.4801 2.3945 2.6336 4.0391 3.3148 1.6445.6812 3.4541.8594 5.1999.5122 1.1648-.2317 2.2662-.6904 3.2442-1.3438v-4.4833h-5c-1.6569 0-3-1.3431-3-3 0-1.6568 1.3431-3 3-3h8c1.6569 0 3 1.3432 3 3v8.9443c0 .8537-.3637 1.6669-1 2.236-1.9958 1.7852-4.4375 3.0071-7.0736 3.5315-2.9098.5788-5.9258.2817-8.6667-.8536-2.7408-1.1353-5.0835-3.0579-6.7317-5.5246-1.64826-2.4668-2.528-5.3669-2.528-8.3336s.87973-5.8668 2.528-8.3335c1.6482-2.4668 3.9909-4.3894 6.7317-5.5247zm8.2765 1.108c-2.5218-.5016-5.1356-.2442-7.5111.7398-2.3754.9839-4.4057 2.6502-5.8342 4.788s-2.1909 4.6512-2.1909 7.2224.7624 5.0846 2.1909 7.2224c1.4285 2.1379 3.4588 3.8041 5.8342 4.788 2.3755.984 4.9893 1.2414 7.5111.7398 2.2847-.4544 4.4008-1.5134 6.1305-3.0606.2121-.1897.3333-.4608.3333-.7453v-8.9443c0-.5523-.4477-1-1-1h-8c-.5523 0-1 .4477-1 1s.4477 1 1 1h6c.5523 0 1 .4477 1 1v6c0 .3148-.1482.6112-.4.8-1.3119.9839-2.8328 1.6662-4.454 1.9886-2.1338.4245-4.3455.2066-6.3555-.6259-2.01-.8326-3.728-2.2425-4.9367-4.0514-1.2087-1.809-1.8538-3.9357-1.8538-6.1113s.6451-4.3023 1.8538-6.1113c1.2087-1.8089 2.9267-3.2188 4.9367-4.0514 2.01-.8325 4.2217-1.0504 6.3555-.6259 1.9332.3845 3.7237 1.2806 5.1873 2.5897.4117.3682 1.0439.3329 1.412-.0787.3682-.4116.333-1.0438-.0786-1.412-1.7297-1.5471-3.8458-2.6061-6.1305-3.0606z" fill="#333" fill-rule="evenodd"/></svg>

<svg width="48" height="48" viewBox="0 0 48 48" fill="none" xmlns="http://www.w3.org/2000/svg">
<path fill-rule="evenodd" clip-rule="evenodd" d="M18.2597 10.1418C21.0006 9.0065 24.0166 8.70945 26.9264 9.28823C29.5625 9.8126 32.0042 11.0345 34 12.8197C35.235 13.9243 35.3406 15.8208 34.236 17.0557C33.1315 18.2907 31.2349 18.3964 30 17.2918C28.8025 16.2207 27.3375 15.4876 25.7558 15.1729C24.01 14.8257 22.2004 15.0039 20.5559 15.6851C18.9113 16.3663 17.5057 17.5198 16.5168 18.9999C15.5278 20.4799 15 22.22 15 24C15 25.78 15.5278 27.5201 16.5168 29.0001C17.5057 30.4802 18.9113 31.6337 20.5559 32.3149C22.2004 32.9961 24.01 33.1743 25.7558 32.8271C26.9206 32.5954 28.022 32.1367 29 31.4833V27H24C22.3431 27 21 25.6569 21 24C21 22.3432 22.3431 21 24 21L32 21C33.6569 21 35 22.3432 35 24V32.9443C35 33.798 34.6363 34.6112 34 35.1803C32.0042 36.9655 29.5625 38.1874 26.9264 38.7118C24.0166 39.2906 21.0006 38.9935 18.2597 37.8582C15.5189 36.7229 13.1762 34.8003 11.528 32.3336C9.87974 29.8668 9 26.9667 9 24C9 21.0333 9.87973 18.1332 11.528 15.6665C13.1762 13.1997 15.5189 11.2771 18.2597 10.1418ZM26.5362 11.2498C24.0144 10.7482 21.4006 11.0056 19.0251 11.9896C16.6497 12.9735 14.6194 14.6398 13.1909 16.7776C11.7624 18.9154 11 21.4288 11 24C11 26.5712 11.7624 29.0846 13.1909 31.2224C14.6194 33.3603 16.6497 35.0265 19.0251 36.0104C21.4006 36.9944 24.0144 37.2518 26.5362 36.7502C28.8209 36.2958 30.937 35.2368 32.6667 33.6896C32.8788 33.4999 33 33.2288 33 32.9443V24C33 23.4477 32.5523 23 32 23L24 23C23.4477 23 23 23.4477 23 24C23 24.5523 23.4477 25 24 25H30C30.5523 25 31 25.4477 31 26V32C31 32.3148 30.8518 32.6112 30.6 32.8C29.2881 33.7839 27.7672 34.4662 26.146 34.7886C24.0122 35.2131 21.8005 34.9952 19.7905 34.1627C17.7805 33.3301 16.0625 31.9202 14.8538 30.1113C13.6451 28.3023 13 26.1756 13 24C13 21.8244 13.6451 19.6977 14.8538 17.8887C16.0625 16.0798 17.7805 14.6699 19.7905 13.8373C21.8005 13.0048 24.0122 12.7869 26.146 13.2114C28.0792 13.5959 29.8697 14.492 31.3333 15.8011C31.745 16.1693 32.3772 16.134 32.7453 15.7224C33.1135 15.3108 33.0783 14.6786 32.6667 14.3104C30.937 12.7633 28.8209 11.7043 26.5362 11.2498Z" fill="#333333"/>
</svg>
